X:1

T:Devil Chased Me Round the Stump

L:1/8

M:C|

S:James Bryan

Z:AK/Fiddler’s Companion

K:G

(3GFE|D2 G2 BABG|D2 G2 B3G|D2 G2 BAGB|A2 G4 (3GFE|

D2 G2 BABG|A2 B2 e3d|e2 dA BAGB|A2 G2 G2:|

|:z(d|e2) d2 BABd|e2 f2 g3 f|e2 dA BAGB|A2 G2 G4|

e2 (3ded BABd|e2 f2 g3f|efed BAGB|A2 G4:|

 

DEVIL DOWN HILL. Old‑Time, Fiddle Tune. The title appears in a list of traditional Ozark Mountain fiddle tunes compiled by musicologist/folklorist Vance Randolph, published in 1954.

 

DEVIL IN A BUSH, THE.  AKA and see “Kincaldrum(‘s Reel),” “Kurcaldrum’s Reel,” “Parson in the Suds [2].” English, Reel. G Major. Standard tuning. The melody appears in the 1770-1772 music manuscripts of William Vickers, a Northumberland musician about whom little is known. The title seems to be idiosyncratic to Vickers, as the tune can be found in several Scottish collections as “Kincaldrum.” See also the related “England’s Glory.”

